F[BALLADE
CUT[Graf und Nonne (Die Nonne)
    Wer zapfet uns ein Glaeschen ein,]
CNR[wir haben jetzt noch Geld.]
REG[Mitteleuropa, Deutschland (DDR) , Brandenburg, Uckermark, Gramzow]
SRC[8, S. 290
    1844 aufgezeichnet]
KEY[Q1155F.08  G 4/4]
MEL[-5_  1_.-5-3_-5_  1_.-71_
    3_  2_.-721-6_  -5__0_
    13  2_1_2_5_  4_243_
    2_  1__-7__  1__0_ //] >>
FCT[Trink - Lied]
CMT[Melodievergleich zu Q0155I., anderes Lied.]
